img/delete-icon.svg

<svg width="14" height="14" viewBox="0 0 14 14" fill="none" xmlns="http://www.w3.org/2000/svg">
<path d="M11.8835 5.3125C11.8835 5.3125 11.5215 9.8025 11.3115 11.6938C11.2115 12.5972 10.6535 13.1265 9.73952 13.1432C8.00019 13.1745 6.25885 13.1765 4.52018 13.1398C3.64085 13.1218 3.09218 12.5858 2.99418 11.6985C2.78285 9.7905 2.42285 5.3125 2.42285 5.3125" stroke="#363942" stroke-width="1.3" stroke-linecap="round" stroke-linejoin="round"/>
<path d="M12.8053 3.15951H1.5" stroke="#363942" stroke-width="1.3" stroke-linecap="round" stroke-linejoin="round"/>
<path d="M10.6274 3.15998C10.104 3.15998 9.65338 2.78998 9.55071 2.27732L9.38871 1.46665C9.28871 1.09265 8.95004 0.833984 8.56404 0.833984H5.74204C5.35604 0.833984 5.01738 1.09265 4.91738 1.46665L4.75538 2.27732C4.65271 2.78998 4.20204 3.15998 3.67871 3.15998" stroke="#363942" stroke-width="1.3" stroke-linecap="round" stroke-linejoin="round"/>
</svg>

<svg width="14" height="14" fill="none" xmlns="http://www.w3.org/2000/svg"><path d="M11.883 5.313s-.361 4.49-.571 6.38c-.1.904-.659 1.434-1.572 1.45-1.74.031-3.481.034-5.22-.003-.88-.018-1.428-.554-1.526-1.442-.211-1.908-.571-6.386-.571-6.386M12.805 3.16H1.5m9.127 0c-.523 0-.974-.37-1.076-.883l-.162-.81a.853.853 0 0 0-.825-.633H5.742a.853.853 0 0 0-.825.633l-.162.81a1.099 1.099 0 0 1-1.076.883" stroke="#363942" stroke-width="1.3" stroke-linecap="round" stroke-linejoin="round"/></svg>
